X:1
T:Father Kelly's Jig
C:Traditional
M:6/8
L:1/8
Q:3/8=124
K:D
A | dfe dcA | FAd FED | dfe dcA | Bcd e2c | (3ABc dfag | fed cAF | gfe dcA | FED D3 :|
d | f2a gfe | agf edc | (3efg afdc | edc dAF | f2a gfe | agf edc | Bcd efg | agf d3 |]
